raw/hero/no-results.svg

<svg width="220" height="160" viewBox="0 0 220 160" fill="none" xmlns="http://www.w3.org/2000/svg">
<rect x="37" y="40" width="146" height="98" rx="12" fill="url(#paint0_linear_726_1990)"/>
<mask id="mask0_726_1990" style="mask-type:alpha" maskUnits="userSpaceOnUse" x="37" y="40" width="146" height="98">
<rect x="37" y="40" width="146" height="98" rx="12" fill="url(#paint1_linear_726_1990)"/>
</mask>
<g mask="url(#mask0_726_1990)">
<path fill-rule="evenodd" clip-rule="evenodd" d="M170 81.9998H110V85.9998H170V81.9998ZM170 91.9998H110V95.9998H170V91.9998ZM110 102H170V106H110V102ZM147 112H110V116H147V112Z" fill="url(#paint2_linear_726_1990)"/>
<path opacity="0.8" fill-rule="evenodd" clip-rule="evenodd" d="M165.358 87.7667C153.986 87.7667 144.767 96.9857 144.767 108.358C144.767 119.73 153.986 128.949 165.358 128.949C176.73 128.949 185.949 119.73 185.949 108.358C185.949 96.9857 176.73 87.7667 165.358 87.7667ZM135.9 108.358C135.9 92.0887 149.089 78.9 165.358 78.9C181.627 78.9 194.816 92.0887 194.816 108.358C194.816 115.147 192.519 121.399 188.66 126.381L189.886 127.606C191.208 127.43 192.592 127.791 193.686 128.705L204.351 137.614C207.129 139.934 207.317 144.138 204.758 146.697C202.199 149.256 197.995 149.068 195.675 146.29L186.766 135.625C185.798 134.466 185.45 132.982 185.704 131.592L184.694 130.582C179.52 135.087 172.757 137.816 165.358 137.816C149.089 137.816 135.9 124.627 135.9 108.358Z" fill="url(#paint3_linear_726_1990)"/>
<path d="M50 80H106V117H50V80Z" fill="#BFD9FF"/>
<path fill-rule="evenodd" clip-rule="evenodd" d="M50 82.1143V80H52.2857V82H52V82.1143H50ZM60.2857 80H55.7143V82H60.2857V80ZM63.7143 80V82H68.2857V80H63.7143ZM71.7143 80V82H76.2857V80H71.7143ZM79.7143 80V82H84.2857V80H79.7143ZM87.7143 80V82H92.2857V80H87.7143ZM95.7143 80V82H100.286V80H95.7143ZM103.714 80V82H104V82.1143H106V80H103.714ZM106 85.2857H104V89.5143H106V85.2857ZM106 92.6857H104V96.9143H106V92.6857ZM106 100.086H104V104.314H106V100.086ZM106 107.486H104V111.714H106V107.486ZM106 114.886H104V115H103.714V117H106V114.886ZM100.286 117V115H95.7143V117H100.286ZM92.2857 117V115H87.7143V117H92.2857ZM84.2857 117V115H79.7143V117H84.2857ZM76.2857 117V115H71.7143V117H76.2857ZM68.2857 117V115H63.7143V117H68.2857ZM60.2857 117V115H55.7143V117H60.2857ZM52.2857 117V115H52V114.886H50V117H52.2857ZM50 111.714H52V107.486H50V111.714ZM50 104.314H52V100.086H50V104.314ZM50 96.9143H52V92.6857H50V96.9143ZM50 89.5143H52V85.2857H50V89.5143Z" fill="#0066FF"/>
</g>
<line x1="37" y1="55.5" x2="183" y2="55.5" stroke="white"/>
<circle cx="47.7" cy="47.7" r="1.7" fill="#757B94"/>
<circle cx="54.4999" cy="47.7" r="1.7" fill="#757B94"/>
<circle cx="61.3" cy="47.7" r="1.7" fill="#757B94"/>
<rect x="50" y="68" width="32" height="4" rx="2" fill="#0066FF"/>
<path fill-rule="evenodd" clip-rule="evenodd" d="M14.8073 52.0729C15.5885 50.6899 16.9293 49.7575 18.8228 49.2501C20.4604 48.8113 21.9069 48.8877 23.1761 49.5303C24.4384 50.1474 25.2777 51.2327 25.6871 52.7607C26.0215 54.0086 25.9686 55.1419 25.5473 56.1282C25.3921 56.47 24.8531 57.3242 23.9302 58.6905C23.5533 59.2283 23.3179 59.7827 23.2104 60.3028C23.0654 60.8875 23.0876 61.4821 23.2514 62.0933L23.3674 62.5262L20.6295 63.2598L20.5135 62.8269C20.261 61.8846 20.1962 61.0285 20.377 60.2704C20.5186 59.4682 21.2111 58.1635 22.4222 56.3378L22.7276 55.7373C23.0312 55.0282 23.1233 54.3484 22.9459 53.6863C22.707 52.7949 22.2669 52.1759 21.6443 51.7968C20.996 51.4246 20.1858 51.3688 19.2646 51.6156C18.1132 51.9241 17.3643 52.5069 17.0505 53.3826C16.7537 54.1172 16.7554 55.0448 17.0557 56.1653L14.369 56.8852C13.8708 55.0261 14.0192 53.4305 14.8073 52.0729ZM21.6798 64.5316C21.093 64.6888 20.7447 65.292 20.902 65.8788L21.2125 67.0379C21.3698 67.6247 21.973 67.973 22.5598 67.8157L23.7189 67.5052C24.3057 67.3479 24.6539 66.7448 24.4967 66.1579L24.1861 64.9988C24.0289 64.412 23.4257 64.0638 22.8389 64.221L21.6798 64.5316Z" fill="#D3D9E6"/>
<path fill-rule="evenodd" clip-rule="evenodd" d="M28.067 26.0618C29.4351 25.2547 31.0625 25.1175 32.9559 25.6249C34.5935 26.0637 35.8081 26.8532 36.5859 28.0442C37.3706 29.2098 37.5548 30.5693 37.1454 32.0974C36.811 33.3452 36.1986 34.3003 35.3405 34.9438C35.0352 35.1622 34.1413 35.6324 32.6589 36.3543C32.0636 36.6315 31.5825 36.9939 31.2294 37.3906C30.8115 37.8245 30.5334 38.3505 30.3696 38.9617L30.2536 39.3947L27.5158 38.6611L27.6318 38.2281C27.8843 37.2859 28.2561 36.5121 28.7918 35.9459C29.3155 35.322 30.5676 34.5383 32.5293 33.5627L33.094 33.1954C33.7115 32.7331 34.1311 32.1904 34.3086 31.5283C34.5474 30.637 34.4758 29.8808 34.1261 29.2412C33.7508 28.5947 33.077 28.1412 32.1559 27.8944C31.0044 27.5859 30.0645 27.7162 29.3549 28.3176C28.7305 28.8054 28.2682 29.6096 27.968 30.7301L25.2813 30.0102C25.7794 28.1511 26.7057 26.8435 28.067 26.0618ZM27.7894 40.2876C27.2026 40.1303 26.5995 40.4786 26.4422 41.0654L26.1316 42.2245C25.9744 42.8113 26.3226 43.4145 26.9095 43.5717L28.0686 43.8823C28.6554 44.0395 29.2586 43.6913 29.4158 43.1045L29.7264 41.9454C29.8836 41.3586 29.5354 40.7554 28.9486 40.5982L27.7894 40.2876Z" fill="#D3D9E6"/>
<circle cx="166.756" cy="108.756" r="19.7562" fill="url(#paint4_linear_726_1990)" fill-opacity="0.8" stroke="#0066FF" stroke-width="7"/>
<line x1="182.045" y1="123.101" x2="184.624" y2="125.68" stroke="#0066FF" stroke-width="4.55912"/>
<path d="M188.634 125.403L197.053 132.436C198.904 133.982 199.029 136.782 197.324 138.487C195.619 140.191 192.819 140.066 191.274 138.216L184.241 129.796C183.206 128.557 183.288 126.733 184.429 125.591C185.571 124.45 187.395 124.368 188.634 125.403Z" fill="#0066FF" stroke="#0066FF" stroke-width="1.51971"/>
<path fill-rule="evenodd" clip-rule="evenodd" d="M177.065 98.6316L173.487 102.568L172.427 101.574C169.929 99.2321 166.299 98.6173 163.209 99.8889L161.529 100.581L159.144 95.8104L161.185 94.9703C166.168 92.9192 172.019 93.9008 176.065 97.6937L177.065 98.6316Z" fill="#0066FF"/>
<defs>
<linearGradient id="paint0_linear_726_1990" x1="37" y1="40" x2="183" y2="40" gradientUnits="userSpaceOnUse">
<stop stop-color="#CFD4E6"/>
<stop offset="1" stop-color="#DBE0F0"/>
</linearGradient>
<linearGradient id="paint1_linear_726_1990" x1="37" y1="40" x2="183" y2="40" gradientUnits="userSpaceOnUse">
<stop stop-color="#B2BCE1"/>
<stop offset="1" stop-color="#D5DAE9"/>
</linearGradient>
<linearGradient id="paint2_linear_726_1990" x1="110" y1="103.387" x2="171.8" y2="103.387" gradientUnits="userSpaceOnUse">
<stop stop-color="#DFE3F0"/>
<stop offset="1" stop-color="white" stop-opacity="0.5"/>
</linearGradient>
<linearGradient id="paint3_linear_726_1990" x1="147.808" y1="155.142" x2="195.467" y2="144.156" gradientUnits="userSpaceOnUse">
<stop stop-color="#B6BDD2"/>
<stop offset="1" stop-color="#D7DDEC"/>
</linearGradient>
<linearGradient id="paint4_linear_726_1990" x1="177" y1="94" x2="166.756" y2="128.512" gradientUnits="userSpaceOnUse">
<stop stop-color="white"/>
<stop offset="1" stop-color="white" stop-opacity="0.22"/>
</linearGradient>
</defs>
</svg>

<svg width="220" height="160" viewBox="0 0 220 160" fill="none" xmlns="http://www.w3.org/2000/svg"><rect x="37" y="40" width="146" height="98" rx="12" fill="url(#paint0_linear_726_1990)"/><mask id="mask0_726_1990" style="mask-type:alpha" maskUnits="userSpaceOnUse" x="37" y="40" width="146" height="98"><rect x="37" y="40" width="146" height="98" rx="12" fill="url(#paint1_linear_726_1990)"/></mask><g mask="url(#mask0_726_1990)"><path fill-rule="evenodd" clip-rule="evenodd" d="M170 82h-60v4h60v-4zm0 10h-60v4h60v-4zm-60 10h60v4h-60v-4zm37 10h-37v4h37v-4z" fill="url(#paint2_linear_726_1990)"/><path opacity=".8" fill-rule="evenodd" clip-rule="evenodd" d="M165.358 87.767c-11.372 0-20.591 9.219-20.591 20.591 0 11.372 9.219 20.591 20.591 20.591 11.372 0 20.591-9.219 20.591-20.591 0-11.372-9.219-20.591-20.591-20.591zM135.9 108.358c0-16.27 13.189-29.458 29.458-29.458s29.458 13.189 29.458 29.458a29.329 29.329 0 0 1-6.156 18.023l1.226 1.225a4.904 4.904 0 0 1 3.8 1.099l10.665 8.909a6.16 6.16 0 1 1-8.676 8.676l-8.909-10.665a4.905 4.905 0 0 1-1.062-4.033l-1.01-1.01a29.348 29.348 0 0 1-19.336 7.234c-16.269 0-29.458-13.189-29.458-29.458z" fill="url(#paint3_linear_726_1990)"/><path d="M50 80h56v37H50V80z" fill="#BFD9FF"/><path fill-rule="evenodd" clip-rule="evenodd" d="M50 82.114V80h2.286v2H52v.114h-2zM60.286 80h-4.572v2h4.572v-2zm3.428 0v2h4.572v-2h-4.572zm8 0v2h4.572v-2h-4.572zm8 0v2h4.572v-2h-4.572zm8 0v2h4.572v-2h-4.572zm8 0v2h4.572v-2h-4.572zm8 0v2H104v.114h2V80h-2.286zM106 85.286h-2v4.228h2v-4.228zm0 7.4h-2v4.228h2v-4.228zm0 7.4h-2v4.228h2v-4.228zm0 7.4h-2v4.228h2v-4.228zm0 7.4h-2V115h-.286v2H106v-2.114zM100.286 117v-2h-4.572v2h4.572zm-8 0v-2h-4.572v2h4.572zm-8 0v-2h-4.572v2h4.572zm-8 0v-2h-4.572v2h4.572zm-8 0v-2h-4.572v2h4.572zm-8 0v-2h-4.572v2h4.572zm-8 0v-2H52v-.114h-2V117h2.286zM50 111.714h2v-4.228h-2v4.228zm0-7.4h2v-4.228h-2v4.228zm0-7.4h2v-4.228h-2v4.228zm0-7.4h2v-4.228h-2v4.228z" fill="#06F"/></g><path stroke="#fff" d="M37 55.5 183 55.5"/><circle cx="47.7" cy="47.7" r="1.7" fill="#757B94"/><circle cx="54.5" cy="47.7" r="1.7" fill="#757B94"/><circle cx="61.3" cy="47.7" r="1.7" fill="#757B94"/><rect x="50" y="68" width="32" height="4" rx="2" fill="#06F"/><path fill-rule="evenodd" clip-rule="evenodd" d="M14.807 52.073c.781-1.383 2.122-2.316 4.016-2.823 1.637-.439 3.084-.362 4.353.28 1.262.617 2.102 1.703 2.511 3.23.334 1.249.282 2.382-.14 3.368-.155.342-.694 1.196-1.617 2.563a4.385 4.385 0 0 0-.72 1.612c-.145.585-.122 1.18.041 1.79l.116.433-2.738.734-.116-.433c-.252-.942-.317-1.798-.136-2.557.142-.802.834-2.107 2.045-3.932l.306-.6c.303-.71.395-1.39.218-2.052-.239-.891-.68-1.51-1.302-1.89-.648-.371-1.458-.427-2.38-.18-1.15.308-1.9.89-2.213 1.767-.297.734-.296 1.662.005 2.782l-2.687.72c-.498-1.859-.35-3.454.438-4.812zm6.873 12.459a1.1 1.1 0 0 0-.778 1.347l.31 1.159a1.1 1.1 0 0 0 1.348.778l1.159-.31a1.1 1.1 0 0 0 .778-1.348l-.31-1.16a1.1 1.1 0 0 0-1.348-.777l-1.16.31zM28.067 26.062c1.368-.807 2.995-.945 4.889-.437 1.637.439 2.852 1.228 3.63 2.42.785 1.165.969 2.524.56 4.052-.335 1.248-.947 2.203-1.806 2.847-.305.218-1.199.688-2.681 1.41a4.382 4.382 0 0 0-1.43 1.037c-.418.434-.696.96-.86 1.57l-.115.434-2.738-.734.116-.433c.252-.942.624-1.716 1.16-2.282.523-.624 1.776-1.408 3.737-2.383l.565-.368c.617-.462 1.037-1.005 1.215-1.667.238-.891.167-1.647-.183-2.287-.375-.646-1.049-1.1-1.97-1.347-1.152-.308-2.091-.178-2.801.424-.625.487-1.087 1.292-1.387 2.412l-2.687-.72c.498-1.859 1.425-3.167 2.786-3.948zm-.278 14.226a1.1 1.1 0 0 0-1.347.777l-.31 1.16a1.1 1.1 0 0 0 .777 1.347l1.16.31a1.1 1.1 0 0 0 1.347-.777l.31-1.16a1.1 1.1 0 0 0-.777-1.347l-1.16-.31z" fill="#D3D9E6"/><circle cx="166.756" cy="108.756" r="19.756" fill="url(#paint4_linear_726_1990)" fill-opacity=".8" stroke="#06F" stroke-width="7"/><path stroke="#06F" stroke-width="4.559" d="M182.045 123.101 184.624 125.68"/><path d="m188.634 125.403 8.419 7.033a4.103 4.103 0 1 1-5.779 5.78l-7.033-8.42a3.12 3.12 0 0 1 4.393-4.393z" fill="#06F" stroke="#06F" stroke-width="1.52"/><path fill-rule="evenodd" clip-rule="evenodd" d="m177.065 98.632-3.578 3.936-1.06-.994a8.681 8.681 0 0 0-9.218-1.685l-1.68.692-2.385-4.77 2.041-.84c4.983-2.052 10.834-1.07 14.88 2.723l1 .938z" fill="#06F"/><defs><linearGradient id="paint0_linear_726_1990" x1="37" y1="40" x2="183" y2="40" gradientUnits="userSpaceOnUse"><stop stop-color="#CFD4E6"/><stop offset="1" stop-color="#DBE0F0"/></linearGradient><linearGradient id="paint1_linear_726_1990" x1="37" y1="40" x2="183" y2="40" gradientUnits="userSpaceOnUse"><stop stop-color="#B2BCE1"/><stop offset="1" stop-color="#D5DAE9"/></linearGradient><linearGradient id="paint2_linear_726_1990" x1="110" y1="103.387" x2="171.8" y2="103.387" gradientUnits="userSpaceOnUse"><stop stop-color="#DFE3F0"/><stop offset="1" stop-color="#fff" stop-opacity=".5"/></linearGradient><linearGradient id="paint3_linear_726_1990" x1="147.808" y1="155.142" x2="195.467" y2="144.156" gradientUnits="userSpaceOnUse"><stop stop-color="#B6BDD2"/><stop offset="1" stop-color="#D7DDEC"/></linearGradient><linearGradient id="paint4_linear_726_1990" x1="177" y1="94" x2="166.756" y2="128.512" gradientUnits="userSpaceOnUse"><stop stop-color="#fff"/><stop offset="1" stop-color="#fff" stop-opacity=".22"/></linearGradient></defs></svg>
